X:72
T:Tenpenny Piece, The
R:slip jig
D:Angelina Carberry & Martin Quinn
M:9/8
L:1/8
K:Em
gag edB edB | gag edB ~d3 | gag edB edB |1 ABG ABd e2f :|2 ~A3 ABd edc ||
|: BAB GEE GEE | ~B3 GEF Gdc | BAB G2E GFE |1 ~D3 DEF Adc :|2 DED DEF ABd ||
<end>
<start>
